X:100
T:Orange In Bloom
M:3/4
L:1/8
K:G
D2 | E3 G E2 | D2 G2 A2 | B2 d2 B2 | A4 BA | 
G3 E E2 | D2 G2 A2 | B2 G2 G2 | G4 D2 | 
E3 G E2 | D2 G2 A2 | B2 d2 B2 | A4 BA | 
G3 E E2 | D2 G2 A2 | B2 G2 G2 | G4 A2 || 
B3 A Bc | d4 B2 | A2 G2 A2 | B2 c2 d2 | 
e2 d2 B2 | A3 G A2 | B2 A2 G2 | E4 D2 | E3 G E2 | 
D2 G2 A2 | B2 d2 B2 | A4 BA | 
G3 E E2 | D2 G2 A2 | B2 G2 G2 | G4 || 

